X:1
T:Title
%%score ( 1 2 ) { 3 | 4 }
L:1/8
Q:1/4=87
M:6/8
K:G
V:1 treble nm="Grand Piano, Soprano"
V:2 treble 
V:3 bass nm="Choir Pad, Go Tell the Glad Tidings"
V:4 bass 
V:1
 D[DG]>[DG] [DG][DG]D | [DG][GB][GB] [DA] [DG]2 | [DG][GB]>[GB] [GB][GB][Gc] | %3
w: By~William~Augustine~Ogden * * * * *|||
 [GB] [FA]2- [FA]2- [FA]/ z/ | D[DA]>[EA] [FA][FA][FB] | [Fc][Dc][DB] [DA] [DB]2 | %6
w: |||
 [DG][CE][Ec] [EA][DG][DG] | [DF] [DG]2- [DG]2- [DG]/ z/ | [GB][Gd]>[Gd] [Gd][Gd][GB] | %9
w: |||
 z d2- d2- d/ z/ | G[GB]>[GB] [GB][Gd][Fc] | [GB] [FA]2- [FA]2- [FA]/ z/ | %12
w: |||
 [FA][GB]>[GB] [GB][GB][DA] | z3 z .c2 | [EA][DG]D [DG][DB][DB] | [CA] [B,G]2- [B,G]3- | %16
w: ||||
 [B,G]3 z3 |] %17
w: |
V:2
 x6 | x6 | x6 | x6 | x6 | x6 | x6 | x6 | x6 | [Ge] G2 G G2 | x6 | x6 | x6 | %13
 [=FB][Ec]>[Ec] [Ec]E-[EB] | x6 | x6 | x6 |] %17
V:3
 B,B,>B, B,B,B, | B,[K:treble]DD C B,2 | B,D>D DDE | D D2- D2- D/ z/ | F,F,>G, A,CB, | %5
 A,A,G, F, G,2 | G,G,G, CB,B, | A, B,2- B,2- B,/ z/ | DB,>B, B,B,G, | C B,2 B, B,2 | %10
 B,[K:treble]D>D DDD | D D2 D D2 | DD>D D D2 | z[K:bass] G,>G, G,A,^G, | A,B,B, B,G,G, | %15
 F, G,2- G,3- | G,3 z3 |] %17
V:4
 G,G,>G, G,G,G, | G,D,D, D, G,2 | G,G,>G, G,G,G, | G, D,2- D,2- D,/ z/ | D,D,>D, D,D,D, | %5
 D,D,D, .D,3 | B,,C,C, C,D,D, | D, G,,2- G,,2- G,,/ z/ | G,G,>G, G, .G,2 | G, G,2 G, G,2 | %10
 G,G,>G, G,B,A, | G, D,2 D, D,2 | D,G,>G, G,G,F, | G,C,>C, C,A,,B,, | C,D,D, D,D,D, | %15
 D, G,,2- G,,3- | G,,3 z3 |] %17

